!!!!SEGMENT: pl-stab--15a--001-004_rodowski-aleksander--missa-in-b-sanctus.krn
!!!cenid: 18xx:3444
!!!COM: Rodowski, Aleksander
!!!COM-rismid: pe30009627
!!!CDT: <1790->1810
!!!CNT: Polish
!!!OPR: Missa in B
!!!OTL: Sanctus
!!!OMV: 004
!!!PDT: 1802
!!!AGN:
!!!SMS-siglum: PL-STAb
!!!SMS-shelfmark: 15a
!!!SMS-shelfwork: 001-004 M
!!!SMS-variant:
!!!SMS-altvar:
!!!NIFC-rismid: 301050682
!!!URL-scan: https://repozytorium.nifc.pl/islandora/object/pl-stab%3A2768/datastream/PDF/view
!!!ONB-nifc: UWAGA: części Mszy: 1. Kyrie, 2. Gloria, 3. Patrem, 4. Sanctus, 5. Benedictus, 6. Agnus Dei
!!!OMD: Adagio
!!!AIN: 2 clars 3 empty 1 organ 2 violn 1 vox
!!!key: B
**kern	**kern	**dynam	**kern	**dynam	**kern	**text	**kern	**text	**kern	**kern	**kern	**kern
*part9	*part8	*part8	*part7	*part7	*part6	*part6	*part5	*part5	*part4	*part3	*part2	*part1
*staff9	*staff8	*	*staff7	*	*staff6	*staff6	*staff5	*staff5	*staff4	*staff3	*staff2	*staff1
*Iorgan	*Ivioln	*	*Ivioln	*	*Iempty	*	*Ivox	*	*Iempty	*Iempty	*Iclars	*Iclars
*I"Organo	*I"Violino Secundo	*	*I"Violino Primo	*	*I"Baſso	*	*I"Canto	*	*I"Cornu Secundo in B.	*I"Cornu Primo in B.	*I"Clarinetto Secundo	*I"Clarinetto Primo
*I'Org.	*I'Vn II	*	*I'Vn I	*	*I'B.	*	*I'C.	*	*I'C. II in B.	*I'C. I in B.	*I'Cl. II	*I'Cl. I
*ICklav	*ICstr	*	*ICstr	*	*ICvox	*	*ICvox	*	*ICvox	*ICvox	*ICww	*ICww
*clefF4	*clefG2	*	*clefG2	*	*clefF4	*	*clefC1	*	*clefG2	*clefG2	*clefG2	*clefG2
*	*	*	*	*	*	*	*	*	*ITrd1c2	*ITrd1c2	*ITrd1c2	*ITrd1c2
*k[b-e-]	*k[b-e-]	*	*k[b-e-]	*	*k[b-e-]	*	*k[b-e-]	*	*k[b-e-]	*k[b-e-]	*k[b-e-]	*k[b-e-]
*B:	*B:	*	*B:	*	*B:	*	*B:	*	*B:	*B:	*B:	*B:
*M3/4	*M3/4	*	*M3/4	*	*M3/4	*	*M3/4	*	*M3/4	*M3/4	*M3/4	*M3/4
=1	=1	=1	=1	=1	=1	=1	=1	=1	=1	=1	=1	=1
!LO:TX:a:t=Adagio	!LO:TX:a:t=Adagio	!	!LO:TX:a:t=Adagio	!LO:DY:rj:b:t=f.	!LO:TX:a:t=Adagio	!	!LO:TX:a:t=Adagio	!	!LO:TX:a:t=adagio	!LO:TX:a:t=Adagio	!LO:TX:a:t=Adagio	!LO:TX:a:t=Adagio
4B-\	8B-/L	.	8b-/L 8d/	f	0.r	.	0.r	.	0.r	0.r	0.r	0.r
.	32B-/LL	.	32B-/LL	.	.	.	.	.	.	.	.	.
.	32A/	.	32A/	.	.	.	.	.	.	.	.	.
.	32B-/	.	32B-/	.	.	.	.	.	.	.	.	.
.	32c/JJJ	.	32c/JJJ	.	.	.	.	.	.	.	.	.
!	!LO:TX:a:t=P:mixedbeam:problem	!	!LO:TX:a:t=P:problem=mixedbeam	!	!	!	!	!	!	!	!	!
4B-\	8B-/L	.	8B-/L	.	.	.	.	.	.	.	.	.
.	8b-\	.	8b-\	.	.	.	.	.	.	.	.	.
4r	8.dd\	.	8.dd\	.	.	.	.	.	.	.	.	.
.	16b-\Jk	.	16b-\Jk	.	.	.	.	.	.	.	.	.
=2	=2	=2	=2	=2	=2	=2	=2	=2	=2	=2	=2	=2
4F\	8a\L	.	8cc/L	.	.	.	.	.	.	.	.	.
.	32f\LL	.	32f/LL	.	.	.	.	.	.	.	.	.
.	32en\	.	32en/	.	.	.	.	.	.	.	.	.
.	32f\	.	32f/	.	.	.	.	.	.	.	.	.
.	32g\JJJ	.	32g/JJJ	.	.	.	.	.	.	.	.	.
!	!	!	!LO:TX:a:t=P:problem=mixedbeam	!	!	!	!	!	!	!	!	!
4F\	8f\L	.	8f/L	.	.	.	.	.	.	.	.	.
.	8cc\	.	8ff\	.	.	.	.	.	.	.	.	.
4r	8.ee-\	.	8.gg\	.	.	.	.	.	.	.	.	.
.	16cc\Jk	.	16ee-\Jk	.	.	.	.	.	.	.	.	.
=3	=3	=3	=3	=3	=3	=3	=3	=3	=3	=3	=3	=3
4B-\	8dd\L	.	8dd\L	.	.	.	.	.	.	.	.	.
.	32b-\LL	.	32b-\LL	.	.	.	.	.	.	.	.	.
.	32a\	.	32a\	.	.	.	.	.	.	.	.	.
.	32b-\	.	32b-\	.	.	.	.	.	.	.	.	.
.	32cc\JJJ	.	32cc\JJJ	.	.	.	.	.	.	.	.	.
4B-\	8b-\L	.	8b-\L	.	.	.	.	.	.	.	.	.
.	8dd\J	.	8bb-\ 8dd\	.	.	.	.	.	.	.	.	.
4r	8.dd\L	.	8.bb-\ 8.dd\	.	.	.	.	.	.	.	.	.
.	16b-\Jk	.	16dd\Jk	.	.	.	.	.	.	.	.	.
=4	=4	=4	=4	=4	=4	=4	=4	=4	=4	=4	=4	=4
4F\	16cc/LL	.	16ee-\LL	.	.	.	.	.	.	.	.	.
.	16b-/	.	16dd\	.	.	.	.	.	.	.	.	.
.	16a/	.	16cc\	.	.	.	.	.	.	.	.	.
.	16b-/JJ	.	16dd\JJ	.	.	.	.	.	.	.	.	.
4F\	8a/L	.	8cc/L	.	.	.	.	.	.	.	.	.
.	8f/	.	8f/	.	.	.	.	.	.	.	.	.
4r	8e-/	.	8g/	.	.	.	.	.	.	.	.	.
.	8c/J	.	8a/J	.	.	.	.	.	.	.	.	.
=5	=5	=5	=5	=5	=5	=5	=5	=5	=5	=5	=5	=5
!	!	!LO:DY:rj:a:t=p.	!	!LO:DY:rj:a:t=p.	!	!	!	!	!	!	!	!
4B-\	8.d/L	p	8.b-\L	p	4B-\	San-	4dd\	San-	8.d/L	8.b-\L	8.d/L	8.b-\L
.	16e-/Jk	.	16cc\Jk	.	.	.	.	.	16e-/K	16cc\K	16e-/K	16cc\K
4B-\	8d/L	.	8b-\L	.	4B-\	-ctus	4dd\	-ctus	8d/J	8b-\J	8d/J	8b-\J
.	8d/	.	8b-\	.	.	.	.	.	8r	8r	8r	8r
4r	8.f/	.	8.dd\	.	4r	.	4r	.	8.b-\L	8dd\L	8.dd\L	8.ff\L
.	.	.	.	.	.	.	.	.	.	8b-\J	.	.
.	16d/Jk	.	16b-\Jk	.	.	.	.	.	16d\Jk	.	16b-\Jk	16dd\Jk
=6	=6	=6	=6	=6	=6	=6	=6	=6	=6	=6	=6	=6
*	*	*	*	*	*	*ij	*	*ij	*	*	*	*
4F\	8.a\L	.	8.cc\L	.	4c\	San-	4ee-\	San-	8.f/L	8.cc\L	8.a\L	8.cc\L
.	16b-\Jk	.	16dd\Jk	.	.	.	.	.	16b-/K	16dd\K	16b-\K	16dd\K
4F\	8a\L	.	8cc\L	.	4F\	-ctus	4cc\	-ctus	8f/J	8cc\J	8a\J	8cc\J
*	*	*	*	*	*	*	*	*Xij	*	*	*	*
.	8a\	.	8cc\	.	.	.	.	.	8r	8r	8r	8r
4r	8.cc\	.	8.ee-\	.	4r	.	4r	.	8.cc\L	8.ee-\L	8.ee-\L	8.gg\L
.	16a\Jk	.	16cc\Jk	.	.	.	.	.	16f\Jk	16cc\Jk	16cc\Jk	16ee-\Jk
=7	=7	=7	=7	=7	=7	=7	=7	=7	=7	=7	=7	=7
*	*	*	*	*	*2\right	*	*2\right	*	*	*	*	*
4B-\	8.b-\L	.	8.dd\L	.	2d\	San-	2ff\	Sa-	8.b-\L	8.dd\L	8.b-\L	8.dd\L
.	16cc\Jk	.	16ee-\Jk	.	.	.	.	.	16cc\K	16ee-\K	16cc\K	16ee-\K
!	!LO:LB:g=original	!	!	!	!	!	!	!	!	!	!	!
4B-\	8b-\L	.	8dd\L	.	.	.	.	.	8b-\J	8dd\J	8b-\J	8dd\J
.	8b-\J	.	8dd\J	.	.	.	.	.	8r	8r	8r	8r
!	!	!	!	!	!	!	!	!	!LO:N:vis=8	!	!	!
4r	16dd\LL	.	16ff\LL	.	4B-\	-ctus	4dd\	.	8.dd\L	8.ff\L	8.dd\L	8.bb-\L
*	*	*	*	*	*	*Xij	*	*	*	*	*	*
.	16b-\	.	16dd\	.	.	.	.	.	.	.	.	.
.	16dd\	.	16bb-\	.	.	.	.	.	.	.	.	.
.	16b-\JJ	.	16dd\JJ	.	.	.	.	.	16b-\Jk	16dd\Jk	16b-\Jk	16gg\Jk
!	!	!	!LO:LB:g=original	!	!	!	!	!	!	!	!	!LO:LB:g=original
=8	=8	=8	=8	=8	=8	=8	=8	=8	=8	=8	=8	=8
4F\	16cc\LL	.	16ee-\LL	.	16c\LL	Do-	16ee-\LL	.	4b-\	4dd\	16cc\LL	16ee-\LL
.	16b-\	.	16dd\	.	16B-\	.	16dd\	.	.	.	16b-\	16dd\
.	16a\	.	16cc\	.	16A\	.	16cc\	.	.	.	16a\	16cc\
.	16b-\JJ	.	16dd\JJ	.	16B-\JJ	.	16dd\JJ	.	.	.	16b-\JJ	16dd\JJ
4F\	4a/	.	4cc\	.	4A\	-mi-	8cc\	-ctus	4f/	4cc\	4a\	4cc\
.	.	.	.	.	.	.	8ff\	Do-	.	.	.	.
4r	4r	.	4r	.	4D\	-nus	8ff\	-mi-	4r	4r	4r	4r
.	.	.	.	.	.	.	8ff\	-nus	.	.	.	.
=9	=9	=9	=9	=9	=9	=9	=9	=9	=9!|:	=9!|:	=9	=9
*2\right	*	*	*	*	*	*	*	*	*	*	*	*
*tremolo	*	*	*	*	*	*	*	*	*	*	*	*
8E-\L	8g\L	.	8gg\L	.	2.e-\	De-	2.gg\	De-	4f/	4cc\	4ee-\	4gg\
8E-\	8bn\	.	8bbn\	.	.	.	.	.	.	.	.	.
8E-\	8cc\	.	8ccc\	.	.	.	.	.	8r	8r	8r	8r
8E-\	8g\	.	8gg\	.	.	.	.	.	8f\L	8cc\L	8ee-\L	8gg\L
8E-\	8f\	.	8ff\	.	.	.	.	.	8b-\	8dd\	8dd\	8ff\
8E-\J	8e-\J	.	8ee-\J	.	.	.	.	.	8cc\J	8ee-\J	8cc\J	8ee-\J
!LO:LB:g=original	!	!	!	!	!	!	!	!	!	!	!	!
=10	=10	=10	=10	=10	=10	=10	=10	=10	=10	=10	=10	=10
8D\L	8f/L	.	8ff\L	.	2.d\	-us	2.ff\	-us	4b-\	4dd\	4dd\	4ff\
8D\	8a/	.	8aa\	.	.	.	.	.	.	.	.	.
8D\	8b-X/	.	8bb-X\	.	.	.	.	.	8r	8r	8r	8r
8D\	8f/	.	8ff\	.	.	.	.	.	8b-\L	8dd\L	8dd\L	8ff\L
8D\	8e-/	.	8ee-\	.	.	.	.	.	8cc\	8ee-\	8cc\	8ee-\
8D\J	8d/J	.	8dd\J	.	.	.	.	.	8dd\J	8ff\J	8b-\J	8dd\J
*Xtremolo	*	*	*	*	*	*	*	*	*	*	*	*
=11	=11	=11	=11	=11	=11	=11	=11	=11	=11	=11	=11	=11
8E-\L	8e-/L	.	8cc\L	.	(4c\	Sa-	(4ee-\	Sa-	4cc\	4ee-\	4e-/	4cc\
8E-\J	8e-/	.	8gg\	.	.	.	.	.	.	.	.	.
*tremolo	*	*	*	*	*	*	*	*	*	*	*	*
8F\L	8d/	.	8ff\	.	4B-\)	.	4dd\)	.	4b-\	4dd\	4d/	4b-\
8F\	8B-/	.	8dd\	.	.	.	.	.	.	.	.	.
8F\	8c/	.	8ee-\	.	4F\	-ba-	4cc\	-ba-	4f\	4cc\	4c/	4a\
8F\J	8e-/J	.	8cc\J	.	.	.	.	.	.	.	.	.
*Xtremolo	*	*	*	*	*	*	*	*	*	*	*	*
=12	=12	=12	=12	=12	=12	=12	=12	=12	=12	=12	=12	=12
4B-\	4d/ 4B-/	.	4b-\	.	4B-\	-oth	4dd\	-oth	4d/	4b-\	8d/L	8b-\L
.	.	.	.	.	.	.	.	.	.	.	16f/L	16dd\L
.	.	.	.	.	.	.	.	.	.	.	16e-/JJ	16cc\JJ
4B-\	4d/ 4B-/	.	4B-/	.	4r	.	8r	.	4d/	4b-\	4d/	4b-\
.	.	.	.	.	.	.	8ff\	Do-	.	.	.	.
4r	4r	.	4r	.	4r	.	8ff\	-mi-	4r	4r	4r	4r
.	.	.	.	.	.	.	8ff\	-nus	.	.	.	.
!	!	!	!	!	!	!	!LO:LB:g=original	!	!LO:LB:g=original	!	!LO:LB:g=original	!
=13	=13	=13	=13	=13	=13	=13	=13	=13	=13:|!	=13:|!	=13	=13
*tremolo	*	*	*	*	*	*	*	*	*	*	*	*
8E-\L	8g\L	.	8gg\L	.	2.e-\	De-	2.gg\	De-	4f/yy	4cc\yy	4ee-\	4gg\
8E-\	8bn\	.	8bbn\	.	.	.	.	.	.	.	.	.
8E-\	8cc\	.	8ccc\	.	.	.	.	.	8ryy	8ryy	8r	8r
8E-\	8g\	.	8gg\	.	.	.	.	.	8f\Lyy	8cc\Lyy	8ee-\L	8gg\L
8E-\	8f\	.	8ff\	.	.	.	.	.	8b-\yy	8dd\yy	8dd\	8ff\
8E-\J	8e-\J	.	8ee-\J	.	.	.	.	.	8cc\Jyy	8ee-\Jyy	8cc\J	8ee-\J
=14	=14	=14	=14	=14	=14	=14	=14	=14	=14	=14	=14	=14
8D\L	8f/L	.	8ff\L	.	2.d\	-us	2.ff\	-us	4b-\yy	4dd\yy	4dd\	4ff\
8D\	8a/	.	8aa\	.	.	.	.	.	.	.	.	.
8D\	8b-X/	.	8bb-X\	.	.	.	.	.	8ryy	8ryy	8r	8r
8D\	8f/	.	8ff\	.	.	.	.	.	8b-\Lyy	8dd\Lyy	8dd\L	8ff\L
8D\	8e-/	.	8ee-\	.	.	.	.	.	8cc\yy	8ee-\yy	8cc\	8ee-\
8D\J	8d/J	.	8dd\J	.	.	.	.	.	8dd\Jyy	8ff\Jyy	8b-\J	8dd\J
*Xtremolo	*	*	*	*	*	*	*	*	*	*	*	*
!	!	!	!	!	!LO:LB:g=original	!	!	!	!	!	!	!
=15	=15	=15	=15	=15	=15	=15	=15	=15	=15	=15	=15	=15
8E-\L	8e-/L	.	8cc\L	.	(4c\	Sa-	(4ee-\	Sa-	4cc\yy	4ee-\yy	4e-/	4cc\
8E-\J	8e-/	.	8gg\	.	.	.	.	.	.	.	.	.
*tremolo	*	*	*	*	*	*	*	*	*	*	*	*
8F\L	8d/	.	8ff\	.	4B-\)	.	4dd\)	.	4b-\yy	4dd\yy	4d/	4b-\
8F\	8B-/	.	8dd\	.	.	.	.	.	.	.	.	.
8F\	8c/	.	8ee-\	.	4F\	-ba-	4cc\	-ba-	4f\yy	4cc\yy	4c/	4a\
8F\J	8e-/J	.	8cc\J	.	.	.	.	.	.	.	.	.
*Xtremolo	*	*	*	*	*	*	*	*	*	*	*	*
!	!LO:LB:g=original	!	!	!	!	!	!	!	!	!	!	!
=16	=16	=16	=16	=16	=16	=16	=16	=16	=16	=16	=16	=16
4B-\	4d/ 4B-/	.	4b-\	.	4B-\	-oth	4dd\	-oth	4d/yy	4b-\yy	8d/L	8b-\L
.	.	.	.	.	.	.	.	.	.	.	16f/L	16dd\L
.	.	.	.	.	.	.	.	.	.	.	16e-/JJ	16cc\JJ
4B-\	4d/ 4B-/	.	4B-/	.	4r	.	4r	.	4d/yy	4b-\yy	4d/	4b-\
4r	4r	.	4r	.	4r	.	4r	.	4ryy	4ryy	4r	4r
=17	=17	=17	=17	=17	=17	=17	=17	=17	=17	=17	=17	=17
*tremolo	*tremolo	*	*	*	*	*	*	*	*2\right	*2\right	*2\right	*2\right
8C/L	8en/L 8B-/	.	8gg\L	.	2G\	O-	2b-\	O-	2.cc\	2.cc\	2.b-\	2.eeX\
8C/	8e/ 8B-/	.	8een\	.	.	.	.	.	.	.	.	.
8C/	8e/ 8B-/	.	8cc\	.	.	.	.	.	.	.	.	.
8C/J	8e/ 8B-/	.	8b-\	.	.	.	.	.	.	.	.	.
*Xtremolo	*	*	*	*	*	*	*	*	*	*	*	*
8En/L	8e/ 8B-/	.	8g\	.	4G\	-san-	4b-\	-san-	.	.	.	.
8C/J	8e/J 8B-/	.	8b-\J	.	.	.	.	.	.	.	.	.
!	!	!	!LO:LB:g=original	!	!	!	!	!	!	!	!	!
=18	=18	=18	=18	=18	=18	=18	=18	=18	=18	=18	=18	=18
*tremolo	*	*	*	*	*	*	*	*	*	*	*	*
8F\L	8f/L 8A/	.	8a\L	.	4F\	-na	4a\	-na	2.f/	2.cc\	4.a\	4.ee-\
8F\	8f/ 8A/	.	8cc\	.	.	.	.	.	.	.	.	.
8F\	8f/ 8A/	.	8ff\	.	4r	.	4r	.	.	.	.	.
8F\J	8f/ 8A/	.	8aa\	.	.	.	.	.	.	.	8cc\L	8aa\L
*Xtremolo	*	*	*	*	*	*	*	*	*	*	*	*
8A\L	8f/ 8A/	.	8gg\	.	4r	.	4r	.	.	.	8b-\	8gg\
8F\J	8f/J 8A/	.	8ff\J	.	.	.	.	.	.	.	8a\J	8ff\J
*Xtremolo	*	*	*	*	*	*	*	*	*	*	*	*
!	!	!	!	!	!	!	!	!	!	!LO:LB:g=original	!	!
=19	=19	=19	=19	=19	=19	=19	=19	=19	=19	=19	=19	=19
*tremolo	*	*	*	*	*	*	*	*	*	*	*	*
8C/L	2.en/ 2.B-/	.	8gg\L	.	4G\	in	4b-\	In	2.cc\	2.cc\	2.g/	2.eeX\
8C/	.	.	8een\	.	.	.	.	.	.	.	.	.
8C/	.	.	8cc\	.	4G\	ex-	4b-\	ex-	.	.	.	.
8C/J	.	.	8b-\	.	.	.	.	.	.	.	.	.
*Xtremolo	*	*	*	*	*	*	*	*	*	*	*	*
8En/L	.	.	8g\	.	4G\	-cel-	4b-\	-cel-	.	.	.	.
8C/J	.	.	8en\J	.	.	.	.	.	.	.	.	.
=20	=20	=20	=20	=20	=20	=20	=20	=20	=20	=20	=20	=20
2.F;\	2.f/ 2.A;/	.	2.f/ 2.A;/	.	2.F;\	-sis	2.a;\	-sis	2.f;/	2.cc;\	2a;\	2ff;\
.	.	.	.	.	.	.	.	.	.	.	4r	4r
!LO:LB:g=original	!	!	!	!	!	!	!	!	!	!	!	!LO:LB:g=original
=21||	=21||	=21||	=21||	=21||	=21||	=21||	=21||	=21||	=21||	=21||	=21||	=21||
!LO:TX:b:t=Pleni	!	!	!	!	!	!	!	!	!	!	!	!
!LO:TX:a:t=Allegro	!	!	!LO:TX:a:t=Allegretto	!	!LO:TX:a:t=Allegro	!	!LO:TX:a:t=Allegro	!	!LO:TX:a:t=Allegro	!LO:TX:a:t=allegro	!LO:TX:a:t=Allegro	!LO:TX:a:t=Allegro
4B-\	16d/LL 16B-/	.	4b-/ 4d/	.	4B-\	Ple-	4dd\	Ple-	4d/	4b-\	4d/	4b-\
.	16d/ 16B-/	.	.	.	.	.	.	.	.	.	.	.
.	16d/ 16B-/	.	.	.	.	.	.	.	.	.	.	.
.	16d/ 16B-/	.	.	.	.	.	.	.	.	.	.	.
4d\	16d/ 16B-/	.	8B-/L	.	4B-\	-ni	4dd\	-ni	4r	4r	4r	4r
.	16d/ 16B-/	.	.	.	.	.	.	.	.	.	.	.
.	16d/ 16B-/	.	8d/	.	.	.	.	.	.	.	.	.
.	16d/ 16B-/	.	.	.	.	.	.	.	.	.	.	.
4B-\	16d/ 16B-/	.	8f/	.	4B-\	sunt	4dd\	sunt	4d/	4b-\	4b-\	4dd\
.	16d/ 16B-/	.	.	.	.	.	.	.	.	.	.	.
.	16d/ 16B-/	.	8b-/J	.	.	.	.	.	.	.	.	.
.	16d/JJ 16B-/	.	.	.	.	.	.	.	.	.	.	.
=22	=22	=22	=22	=22	=22	=22	=22	=22	=22	=22	=22	=22
4F\	16e-/LL 16c/	.	4b-\	.	4B-\	Cae-	4dd\	cae-	4b-\	4dd\	4b-\	4dd\
.	16e-/ 16c/	.	.	.	.	.	.	.	.	.	.	.
.	16e-/ 16c/	.	.	.	.	.	.	.	.	.	.	.
.	16e-/ 16c/	.	.	.	.	.	.	.	.	.	.	.
8F\L	16e-/ 16c/	.	8a\L	.	4A\	-li	4cc\	-li	4f\	4cc\	4a\	4cc\
.	16e-/ 16c/	.	.	.	.	.	.	.	.	.	.	.
8A\	16e-/ 16c/	.	8cc\	.	.	.	.	.	.	.	.	.
.	16e-/ 16c/	.	.	.	.	.	.	.	.	.	.	.
8c\	16e-/ 16c/	.	8b-\	.	4r	.	4r	.	4r	4r	4r	4r
.	16e-/ 16c/	.	.	.	.	.	.	.	.	.	.	.
8e-\J	16e-/ 16c/	.	8dd\J	.	.	.	.	.	.	.	.	.
.	16e-/JJ 16c/	.	.	.	.	.	.	.	.	.	.	.
=23	=23	=23	=23	=23	=23	=23	=23	=23	=23	=23	=23	=23
4F\	16f/LL 16A/	.	4cc\	.	4A\	Cae-	4cc\	Cae-	4f/	4cc\	4a\	4cc\
.	16f/ 16A/	.	.	.	.	.	.	.	.	.	.	.
.	16f/ 16A/	.	.	.	.	.	.	.	.	.	.	.
.	16f/ 16A/	.	.	.	.	.	.	.	.	.	.	.
4A\	16f/ 16A/	.	8f\L	.	4c\	-li	4ee-\	-li	4r	4r	4r	4r
.	16f/ 16A/	.	.	.	.	.	.	.	.	.	.	.
.	16f/ 16A/	.	8a\	.	.	.	.	.	.	.	.	.
.	16f/ 16A/	.	.	.	.	.	.	.	.	.	.	.
4F\	16f/ 16A/	.	8cc\	.	4c\	et	4ee-\	et	4f/	4cc\	4cc\	4ee-X\
.	16f/ 16A/	.	.	.	.	.	.	.	.	.	.	.
.	16f/ 16A/	.	8ee-\J	.	.	.	.	.	.	.	.	.
.	16f/JJ 16A/	.	.	.	.	.	.	.	.	.	.	.
!	!	!	!	!	!	!	!	!	!	!	!LO:LB:g=original	!
=24	=24	=24	=24	=24	=24	=24	=24	=24	=24	=24	=24	=24
*	*Xtremolo	*	*	*	*	*	*	*	*	*	*	*
4B-\	16f/LL 16A/	.	4ee-\	.	4c\	ter-	4ee-\	ter-	4f\	4cc\	4cc\	4ee-\
.	16f/ 16A/	.	.	.	.	.	.	.	.	.	.	.
.	16f/ 16A/	.	.	.	.	.	.	.	.	.	.	.
.	16f/JJ 16A/	.	.	.	.	.	.	.	.	.	.	.
*	*tremolo	*	*	*	*	*	*	*	*	*	*	*
8B-\L	16d/LL 16B-/	.	8dd\L	.	4B-\	-ra	4dd\	-ra	4b-\	4dd\	4b-\	4dd\
.	16d/ 16B-/	.	.	.	.	.	.	.	.	.	.	.
8F\	16d/ 16B-/	.	8ff\	.	.	.	.	.	.	.	.	.
.	16d/ 16B-/	.	.	.	.	.	.	.	.	.	.	.
8B-\	16d/ 16B-/	.	8ee-\	.	4r	.	4r	.	4r	4r	4r	4r
.	16d/ 16B-/	.	.	.	.	.	.	.	.	.	.	.
8d\J	16d/ 16B-/	.	8gg\J	.	.	.	.	.	.	.	.	.
.	16d/JJ 16B-/	.	.	.	.	.	.	.	.	.	.	.
!	!	!	!	!	!	!	!LO:LB:g=original	!	!	!	!	!
=25	=25	=25	=25	=25	=25	=25	=25	=25	=25	=25	=25	=25
*tremolo	*	*	*	*	*	*	*	*	*	*	*	*
8D\L	16b-/LL 16d/	.	4ff\	.	2d\	glo-	2ff\	glo-	4b-\	4dd\	4dd\	4ff\
.	16b-/ 16d/	.	.	.	.	.	.	.	.	.	.	.
8D\	16b-/ 16d/	.	.	.	.	.	.	.	.	.	.	.
.	16b-/ 16d/	.	.	.	.	.	.	.	.	.	.	.
8D\	16b-/ 16d/	.	8b-\L	.	.	.	.	.	4r	4r	4r	4r
.	16b-/ 16d/	.	.	.	.	.	.	.	.	.	.	.
8D\	16b-/ 16d/	.	8dd\	.	.	.	.	.	.	.	.	.
.	16b-/ 16d/	.	.	.	.	.	.	.	.	.	.	.
!	!	!	!	!	!LO:N:vis=4.	!	!	!	!	!	!	!
8D\	16b-/ 16d/	.	8ff\	.	4d\	-ri-	4ff\	-ri-	4r	4r	4r	4r
.	16b-/ 16d/	.	.	.	.	.	.	.	.	.	.	.
8D\J	16b-/ 16d/	.	8bb-\J	.	.	.	.	.	.	.	.	.
.	16b-/JJ 16d/	.	.	.	.	.	.	.	.	.	.	.
!	!	!	!	!	!LO:LB:g=original	!	!	!	!	!	!	!
=26	=26	=26	=26	=26	=26	=26	=26	=26	=26	=26	=26	=26
8E-\L	16b-/LL 16e-/	.	8aa\L	.	4e-\	-a	4gg\	-a	4cc\	4ee-\	4ee-\	4gg\
.	16b-/ 16e-/	.	.	.	.	.	.	.	.	.	.	.
8E-\	16b-/ 16e-/	.	8gg\	.	.	.	.	.	.	.	.	.
.	16b-/ 16e-/	.	.	.	.	.	.	.	.	.	.	.
8E-\	16b-/ 16e-/	.	8ff#X\	.	4r	.	4r	.	4r	4r	4r	4r
.	16b-/ 16e-/	.	.	.	.	.	.	.	.	.	.	.
8E-\	16b-/ 16e-/	.	8gg\	.	.	.	.	.	.	.	.	.
.	16b-/ 16e-/	.	.	.	.	.	.	.	.	.	.	.
8E-\	16b-/ 16e-/	.	8cc\	.	4r	.	4r	.	4r	4r	4r	4r
.	16b-/ 16e-/	.	.	.	.	.	.	.	.	.	.	.
8E-\J	16b-/ 16e-/	.	8dd\J	.	.	.	.	.	.	.	.	.
.	16b-/JJ 16e-/	.	.	.	.	.	.	.	.	.	.	.
=27	=27	=27	=27	=27	=27	=27	=27	=27	=27	=27	=27	=27
8F\L	16a/LL 16f/	.	8ee-\L	.	2.c\	tu-	2.ee-\	tu-	4cc\	4ee-\	4cc\	4ee-\
.	16a/ 16f/	.	.	.	.	.	.	.	.	.	.	.
8F\	16a/ 16f/	.	8cc\	.	.	.	.	.	.	.	.	.
.	16a/ 16f/	.	.	.	.	.	.	.	.	.	.	.
8F\	16a/ 16f/	.	8g\	.	.	.	.	.	4r	4r	4r	4r
.	16a/ 16f/	.	.	.	.	.	.	.	.	.	.	.
8F\	16a/ 16f/	.	8b-\	.	.	.	.	.	.	.	.	.
.	16a/ 16f/	.	.	.	.	.	.	.	.	.	.	.
8F\	16a/ 16f/	.	8a\	.	.	.	.	.	4f/	4cc\	4a/	4cc\
.	16a/ 16f/	.	.	.	.	.	.	.	.	.	.	.
8F\J	16a/ 16f/	.	8cc\J	.	.	.	.	.	.	.	.	.
.	16a/JJ 16f/	.	.	.	.	.	.	.	.	.	.	.
*Xtremolo	*	*	*	*	*	*	*	*	*	*	*	*
!	!	!	!LO:LB:g=original	!	!	!	!	!	!	!	!	!
=28	=28	=28	=28	=28	=28	=28	=28	=28	=28	=28	=28	=28
4B-\	16b-/LL 16d/	.	8b-\L	.	4B-\	-a	4dd\	-a	4b-\	4dd\	4b-\	4dd\
.	16b-/ 16d/	.	.	.	.	.	.	.	.	.	.	.
.	16b-/ 16d/	.	8a\	.	.	.	.	.	.	.	.	.
.	16b-/ 16d/	.	.	.	.	.	.	.	.	.	.	.
4r	16b-/ 16d/	.	8b-\	.	4r	.	4r	.	4r	4r	4r	4r
.	16b-/ 16d/	.	.	.	.	.	.	.	.	.	.	.
.	16b-/ 16d/	.	8cc\	.	.	.	.	.	.	.	.	.
.	16b-/ 16d/	.	.	.	.	.	.	.	.	.	.	.
4r	16b-/ 16d/	.	8dd\	.	4r	.	4r	.	4r	4r	4r	4r
.	16b-/ 16d/	.	.	.	.	.	.	.	.	.	.	.
.	16b-/ 16d/	.	8ee-\J	.	.	.	.	.	.	.	.	.
.	16b-/JJ 16d/	.	.	.	.	.	.	.	.	.	.	.
=29	=29	=29	=29	=29	=29	=29	=29	=29	=29	=29	=29	=29
*tremolo	*	*	*	*	*	*	*	*	*	*	*	*
8D\L	16b-/LL 16d/	.	4ff\	.	2d\	glo-	2ff\	glo-	2cc\	2cc\	2dd\	2ff\
.	16b-/ 16d/	.	.	.	.	.	.	.	.	.	.	.
8D\	16b-/ 16d/	.	.	.	.	.	.	.	.	.	.	.
.	16b-/ 16d/	.	.	.	.	.	.	.	.	.	.	.
8D\	16b-/ 16d/	.	8b-\L	.	.	.	.	.	.	.	.	.
.	16b-/ 16d/	.	.	.	.	.	.	.	.	.	.	.
8D\	16b-/ 16d/	.	8dd\	.	.	.	.	.	.	.	.	.
.	16b-/ 16d/	.	.	.	.	.	.	.	.	.	.	.
8D\	16b-/ 16d/	.	8ff\	.	4d\	-ri-	4ff\	-ri-	4r	4r	4r	4r
.	16b-/ 16d/	.	.	.	.	.	.	.	.	.	.	.
8D\J	16b-/ 16d/	.	8bb-\J	.	.	.	.	.	.	.	.	.
.	16b-/JJ 16d/	.	.	.	.	.	.	.	.	.	.	.
=30	=30	=30	=30	=30	=30	=30	=30	=30	=30	=30	=30	=30
8E-\L	16b-/LL 16e-/	.	8aa\L	.	4e-\	-a	4gg\	-a	2b-\	2ee-\	2ee-\	2gg\
.	16b-/ 16e-/	.	.	.	.	.	.	.	.	.	.	.
8E-\	16b-/ 16e-/	.	8gg\	.	.	.	.	.	.	.	.	.
.	16b-/ 16e-/	.	.	.	.	.	.	.	.	.	.	.
8E-\	16b-/ 16e-/	.	8ff#X\	.	4r	.	4r	.	.	.	.	.
.	16b-/ 16e-/	.	.	.	.	.	.	.	.	.	.	.
8E-\	16b-/ 16e-/	.	8gg\	.	.	.	.	.	.	.	.	.
.	16b-/ 16e-/	.	.	.	.	.	.	.	.	.	.	.
8E-\	16b-/ 16e-/	.	8cc\	.	4r	.	4r	.	4r	4r	4r	4r
.	16b-/ 16e-/	.	.	.	.	.	.	.	.	.	.	.
8E-\J	16b-/ 16e-/	.	8dd\J	.	.	.	.	.	.	.	.	.
.	16b-/JJ 16e-/	.	.	.	.	.	.	.	.	.	.	.
=31	=31	=31	=31	=31	=31	=31	=31	=31	=31	=31	=31	=31
8F\L	16a/LL 16f/	.	8ee-\L	.	2.c\	tu-	2.ee-\	tu-	4cc\	4ee-\	4cc\	4ee-\
.	16a/ 16f/	.	.	.	.	.	.	.	.	.	.	.
8F\	16a/ 16f/	.	8cc\	.	.	.	.	.	.	.	.	.
.	16a/ 16f/	.	.	.	.	.	.	.	.	.	.	.
8F\	16a/ 16f/	.	8g\	.	.	.	.	.	4r	4r	4r	4r
.	16a/ 16f/	.	.	.	.	.	.	.	.	.	.	.
8F\J	16a/ 16f/	.	8b-\	.	.	.	.	.	.	.	.	.
.	16a/ 16f/	.	.	.	.	.	.	.	.	.	.	.
*Xtremolo	*	*	*	*	*	*	*	*	*	*	*	*
8G\L	16a/ 16f/	.	8a\	.	.	.	.	.	4f/	4cc\	4a\	4cc\
.	16a/ 16f/	.	.	.	.	.	.	.	.	.	.	.
8G\J	16a/ 16f/	.	8cc\J	.	.	.	.	.	.	.	.	.
.	16a/JJ 16f/	.	.	.	.	.	.	.	.	.	.	.
!LO:LB:g=original	!LO:LB:g=original	!	!	!	!	!	!	!	!	!	!	!
=32	=32	=32	=32	=32	=32	=32	=32	=32	=32	=32	=32	=32
4B-\	16b-/LL 16d/	.	8b-\L	.	4B-\	-a	4dd\	-a	4b-\	4dd\	4b-\	4dd\
.	16b-/ 16d/	.	.	.	.	.	.	.	.	.	.	.
.	16b-/ 16d/	.	8dd\	.	.	.	.	.	.	.	.	.
.	16b-/ 16d/	.	.	.	.	.	.	.	.	.	.	.
4r	16b-/ 16d/	.	8ff\	.	4r	.	4r	.	4r	4r	4r	4r
.	16b-/ 16d/	.	.	.	.	.	.	.	.	.	.	.
.	16b-/ 16d/	.	8bb-\	.	.	.	.	.	.	.	.	.
.	16b-/ 16d/	.	.	.	.	.	.	.	.	.	.	.
4r	16b-/ 16d/	.	8ff\	.	4d\	O-	4ff\	O-	4dd\	4ff\	4dd\	4ff\
.	16b-/ 16d/	.	.	.	.	.	.	.	.	.	.	.
.	16b-/ 16d/	.	8dd\J	.	.	.	.	.	.	.	.	.
.	16b-/JJ 16d/	.	.	.	.	.	.	.	.	.	.	.
!	!	!	!	!	!	!	!	!	!LO:LB:g=original	!	!	!
=33	=33	=33	=33	=33	=33	=33	=33	=33	=33	=33	=33	=33
*tremolo	*	*	*	*	*	*	*	*	*	*	*	*
8F\L	16a/LL 16e-/	.	8ee-\L	.	2.c\	-san-	2.ee-\	-san-	4cc\	4ee-\	4cc\	4ee-\
.	16a/ 16e-/	.	.	.	.	.	.	.	.	.	.	.
8F\	16a/ 16e-/	.	8cc\	.	.	.	.	.	.	.	.	.
.	16a/ 16e-/	.	.	.	.	.	.	.	.	.	.	.
8F\	16a/ 16e-/	.	8g\	.	.	.	.	.	4r	4r	4r	4r
.	16a/ 16e-/	.	.	.	.	.	.	.	.	.	.	.
8F\J	16a/ 16e-/	.	8b-\	.	.	.	.	.	.	.	.	.
.	16a/JJ 16e-/	.	.	.	.	.	.	.	.	.	.	.
*Xtremolo	*Xtremolo	*	*	*	*	*	*	*	*	*	*	*
8G\L	16a/LL 16f/	.	8a\	.	.	.	.	.	4f/	4cc\	4a\	4cc\
.	16a/ 16f/	.	.	.	.	.	.	.	.	.	.	.
8G\J	16a/ 16f/	.	8cc\J	.	.	.	.	.	.	.	.	.
.	16a/JJ 16f/	.	.	.	.	.	.	.	.	.	.	.
=34	=34	=34	=34	=34	=34	=34	=34	=34	=34	=34	=34	=34
*	*tremolo	*	*	*	*	*	*	*	*	*	*	*
4B-\	16b-/LL 16d/	.	8b-\L	.	4B-\	-na	4dd\	-na	4b-\	4dd\	4b-\	4dd\
.	16b-/ 16d/	.	.	.	.	.	.	.	.	.	.	.
.	16b-/ 16d/	.	8dd\	.	.	.	.	.	.	.	.	.
.	16b-/ 16d/	.	.	.	.	.	.	.	.	.	.	.
4r	16b-/ 16d/	.	8ff\	.	4r	.	4r	.	4r	4r	4r	4r
.	16b-/ 16d/	.	.	.	.	.	.	.	.	.	.	.
.	16b-/ 16d/	.	8bb-\	.	.	.	.	.	.	.	.	.
.	16b-/ 16d/	.	.	.	.	.	.	.	.	.	.	.
4r	16b-/ 16d/	.	8ff\	.	8d\	in	8ff\	in	4dd\	4ff\	4dd\	4ff\
.	16b-/ 16d/	.	.	.	.	.	.	.	.	.	.	.
.	16b-/ 16d/	.	8dd\J	.	8d\	ex-	8ff\	ex-	.	.	.	.
.	16b-/JJ 16d/	.	.	.	.	.	.	.	.	.	.	.
!	!	!	!	!	!	!	!	!	!	!LO:LB:g=original	!	!
=35	=35	=35	=35	=35	=35	=35	=35	=35	=35	=35	=35	=35
*tremolo	*	*	*	*	*	*	*	*	*	*	*	*
8F\L	16a/LL 16e-/	.	8ee-\L	.	2.c\	-cel-	2.ee-\	-cel-	4cc\	4ee-\	4cc\	4ee-\
.	16a/ 16e-/	.	.	.	.	.	.	.	.	.	.	.
8F\	16a/ 16e-/	.	8cc\	.	.	.	.	.	.	.	.	.
.	16a/ 16e-/	.	.	.	.	.	.	.	.	.	.	.
8F\	16a/ 16e-/	.	8g\	.	.	.	.	.	4r	4r	4r	4r
.	16a/ 16e-/	.	.	.	.	.	.	.	.	.	.	.
8F\J	16a/ 16e-/	.	8b-\	.	.	.	.	.	.	.	.	.
.	16a/JJ 16e-/	.	.	.	.	.	.	.	.	.	.	.
*Xtremolo	*Xtremolo	*	*	*	*	*	*	*	*	*	*	*
8G\L	16a/LL 16f/	.	8a\	.	.	.	.	.	4f/	4cc\	4a\	4cc\
.	16a/ 16f/	.	.	.	.	.	.	.	.	.	.	.
8G\J	16a/ 16f/	.	8cc\J	.	.	.	.	.	.	.	.	.
.	16a/JJ 16f/	.	.	.	.	.	.	.	.	.	.	.
=36	=36	=36	=36	=36	=36	=36	=36	=36	=36	=36	=36	=36
4B-\	4b-/ 4d/	.	4b-/ 4d/	.	4B-\	-sis	4dd\	-sis	4d/	4b-\	4b-\	4dd\
4B-\	4d/ 4B-/	.	4b-/ 4d/	.	8B-\	in	8dd\	in-	4b-\	4dd\	4dd\	4ff\
.	.	.	.	.	8B-\	ex-	8dd\	-ex-	.	.	.	.
4B-\	4d/ 4B-/	.	4b-/ 4d/	.	4B-\	-cel-	4dd\	-cel-	4f/	4cc\	4cc\	4ee-\
!	!	!	!	!	!	!	!LO:LB:g=original	!	!	!	!	!
=37	=37	=37	=37	=37	=37	=37	=37	=37	=37	=37	=37	=37
4B-\	4B-/	.	4b-/ 4d/	.	4B-\	-sis	4dd\	-sis	4d/	4b-\	4b-\	4dd\
4r	4r	.	4r	.	4r	.	2r	.	4r	4r	4r	4r
4r	4r	.	4r	.	4r	.	.	.	4r	4r	4r	4r
==	==	==	==	==	==	==	==	==	==	==	==	==
*-	*-	*-	*-	*-	*-	*-	*-	*-	*-	*-	*-	*-
!!!system-decoration: s1,s2[(s3,s4)][(s5,s6)][(s7,s8)]s9
!!!ENC: Berenika Jozajtis
!!!END: 2021-11-20
!!!ENC: Leszek Kubiak
!!!END: 2021-11-30
